icon/ii/fullscreen-exit.svg

<svg xmlns="http://www.w3.org/2000/svg" viewBox="0 0 8 8" height="1em" width="1em">
  <path d="M1 0l-1 1 1.5 1.5-1.5 1.5h4v-4l-1.5 1.5-1.5-1.5zm3 4v4l1.5-1.5 1.5 1.5 1-1-1.5-1.5 1.5-1.5h-4z"/>
</svg>

<svg xmlns="http://www.w3.org/2000/svg" width="8" height="8"><path d="M1 0 0 1l1.5 1.5L0 4h4V0L2.5 1.5 1 0zm3 4v4l1.5-1.5L7 8l1-1-1.5-1.5L8 4H4z"/></svg>
